public/Icons/sprite.svg

<svg aria-hidden="true" style="position: absolute; width: 0; height: 0; overflow: hidden;" version="1.1" xmlns="http://www.w3.org/2000/svg" xmlns:xlink="http://www.w3.org/1999/xlink">
<defs>
<symbol id="down-arrow" viewBox="0 0 48 32">
<path stroke-linejoin="round" stroke-linecap="round" stroke-miterlimit="4" stroke-width="8" d="M4 6l20 20 20-20"></path>
</symbol>
<symbol id="favorite" viewBox="0 0 32 32">
<path stroke-linejoin="round" stroke-linecap="round" stroke-miterlimit="4" stroke-width="2.4615" d="M27.787 6.147c-0.681-0.681-1.49-1.222-2.379-1.591s-1.844-0.559-2.807-0.559-1.917 0.19-2.807 0.559c-0.89 0.369-1.699 0.909-2.38 1.591l-1.413 1.413-1.413-1.413c-1.376-1.376-3.241-2.148-5.187-2.148s-3.811 0.773-5.187 2.148c-1.376 1.376-2.148 3.241-2.148 5.187s0.773 3.811 2.148 5.187l11.787 11.787 11.787-11.787c0.681-0.681 1.222-1.49 1.591-2.379s0.559-1.844 0.559-2.807-0.19-1.917-0.559-2.807c-0.369-0.89-0.909-1.699-1.591-2.38z"></path>
</symbol>
<symbol id="log-in" viewBox="0 0 32 32">
<path fill="none" stroke="#f0aa8d" style="stroke: var(--color1, #f0aa8d)" stroke-linejoin="round" stroke-linecap="round" stroke-miterlimit="4" stroke-width="3.2" d="M20 4h1.6c2.24 0 3.36 0 4.216 0.436 0.753 0.383 1.364 0.995 1.748 1.748 0.436 0.856 0.436 1.976 0.436 4.216v11.2c0 2.24 0 3.36-0.436 4.216-0.384 0.753-0.995 1.364-1.748 1.748-0.856 0.436-1.976 0.436-4.216 0.436h-1.6"></path>
<path fill="none" stroke="#f0aa8d" style="stroke: var(--color1, #f0aa8d)" stroke-linejoin="round" stroke-linecap="round" stroke-miterlimit="4" stroke-width="3.2" d="M13.333 9.333l6.667 6.667M20 16l-6.667 6.667M20 16h-16"></path>
</symbol>
<symbol id="ukraine" viewBox="0 0 32 32">
<path fill="#ffda44" style="fill: var(--color2, #ffda44)" d="M16 32c8.837 0 16-7.163 16-16s-7.163-16-16-16c-8.837 0-16 7.163-16 16s7.163 16 16 16z"></path>
<path fill="#338af3" style="fill: var(--color3, #338af3)" d="M0 16c0-8.836 7.163-16 16-16s16 7.163 16 16z"></path>
</symbol>

<symbol id="close" viewBox="0 0 20 20">
<path stroke="#000" d="M10 8.586l-7.071-7.071-1.414 1.414 7.071 7.071-7.071 7.071 1.414 1.414 7.071-7.071 7.071 7.071 1.414-1.414-7.071-7.071 7.071-7.071-1.414-1.414-7.071 7.071z"></path>
</symbol>

<symbol id="book-open" viewBox="0 0 32 32" fill="none">
  <path d="M14.6667 4.13333C14.6667 3.3866 14.6667 3.01323 14.5213 2.72801C14.3935 2.47713 14.1895 2.27316 13.9387 2.14532C13.6534 2 13.2801 2 12.5333 2H12.2667C10.7732 2 10.0265 2 9.45603 2.29065C8.95426 2.54631 8.54631 2.95426 8.29065 3.45603C8 4.02646 8 4.77319 8 6.26667V14L8.0667 13.8999C8.5298 13.2053 8.76135 12.858 9.06727 12.6065C9.33809 12.3839 9.65016 12.2169 9.9856 12.1151C10.3645 12 10.7819 12 11.6168 12H12.5333C13.2801 12 13.6534 12 13.9387 11.8547C14.1895 11.7268 14.3935 11.5229 14.5213 11.272C14.6667 10.9868 14.6667 10.6134 14.6667 9.86667V4.13333Z" stroke="black" stroke-width="1.5" stroke-linecap="round" stroke-linejoin="round"/>
  <path d="M1.33331 4.13333C1.33331 3.3866 1.33331 3.01323 1.47864 2.72801C1.60647 2.47713 1.81044 2.27316 2.06133 2.14532C2.34654 2 2.71991 2 3.46665 2H3.73331C5.22679 2 5.97352 2 6.54395 2.29065C7.04572 2.54631 7.45367 2.95426 7.70933 3.45603C7.99998 4.02646 7.99998 4.77319 7.99998 6.26667V14L7.93328 13.8999C7.47018 13.2053 7.23863 12.858 6.93271 12.6065C6.66188 12.3839 6.34982 12.2169 6.01438 12.1151C5.63548 12 5.21805 12 4.3832 12H3.46665C2.71991 12 2.34654 12 2.06133 11.8547C1.81044 11.7268 1.60647 11.5229 1.47864 11.272C1.33331 10.9868 1.33331 10.6134 1.33331 9.86667V4.13333Z" stroke="black" stroke-width="1.5" stroke-linecap="round" stroke-linejoin="round"/>
</symbol>

<symbol id="star" viewBox="0 0 32 32">
  <path
    fill="#ffc531"
    style="stroke: #ffc531; stroke-width: 2.4"
    d="M12.4 9.394l3.6-6.822 3.6 6.822c0.318 0.603 0.899 1.025 1.571 1.141l7.601 1.315-5.376 5.532c-0.475 0.489-0.697 1.171-0.6 1.846l1.098 7.635-6.922-3.404c-0.612-0.301-1.329-0.301-1.941 0l-6.922 3.404 1.098-7.635c0.097-0.675-0.125-1.357-0.6-1.846l-5.376-5.532 7.601-1.315c0.672-0.116 1.252-0.538 1.571-1.141z"
  ></path>
</symbol>

</defs>
</svg>

<svg xmlns="http://www.w3.org/2000/svg" aria-hidden="true" style="position:absolute;width:0;height:0;overflow:hidden"><defs><symbol id="down-arrow" viewBox="0 0 48 32"><path stroke-linecap="round" stroke-linejoin="round" stroke-width="8" d="m4 6 20 20L44 6"/></symbol><symbol id="favorite" viewBox="0 0 32 32"><path stroke-linecap="round" stroke-linejoin="round" stroke-width="2.462" d="M27.787 6.147a7.326 7.326 0 0 0-10.373 0L16.001 7.56l-1.413-1.413a7.333 7.333 0 0 0-10.374 0 7.333 7.333 0 0 0 0 10.374l11.787 11.787 11.787-11.787a7.326 7.326 0 0 0 0-10.373z"/></symbol><symbol id="log-in" viewBox="0 0 32 32"><path fill="none" stroke="#f0aa8d" stroke-linecap="round" stroke-linejoin="round" stroke-width="3.2" d="M20 4h1.6c2.24 0 3.36 0 4.216.436a3.996 3.996 0 0 1 1.748 1.748C28 7.04 28 8.16 28 10.4v11.2c0 2.24 0 3.36-.436 4.216a4.001 4.001 0 0 1-1.748 1.748C24.96 28 23.84 28 21.6 28H20M13.333 9.333 20 16m0 0-6.667 6.667M20 16H4" style="stroke:var(--color1, #f0aa8d)"/></symbol><symbol id="ukraine" viewBox="0 0 32 32"><path fill="#ffda44" d="M16 32c8.837 0 16-7.163 16-16S24.837 0 16 0 0 7.163 0 16s7.163 16 16 16z" style="fill:var(--color2, #ffda44)"/><path fill="#338af3" d="M0 16C0 7.164 7.163 0 16 0s16 7.163 16 16z" style="fill:var(--color3, #338af3)"/></symbol><symbol id="close" viewBox="0 0 20 20"><path stroke="#000" d="M10 8.586 2.929 1.515 1.515 2.929 8.586 10l-7.071 7.071 1.414 1.414L10 11.414l7.071 7.071 1.414-1.414L11.414 10l7.071-7.071-1.414-1.414L10 8.586z"/></symbol><symbol id="book-open" fill="none" viewBox="0 0 32 32"><path stroke="#000" stroke-linecap="round" stroke-linejoin="round" stroke-width="1.5" d="M14.667 4.133c0-.746 0-1.12-.146-1.405a1.333 1.333 0 0 0-.582-.583C13.653 2 13.28 2 12.533 2h-.266c-1.494 0-2.24 0-2.811.29-.502.256-.91.664-1.165 1.166C8 4.026 8 4.773 8 6.266V14l.067-.1c.463-.695.694-1.042 1-1.293.271-.223.583-.39.919-.492.378-.115.796-.115 1.63-.115h.917c.747 0 1.12 0 1.406-.145.25-.128.454-.332.582-.583.146-.285.146-.659.146-1.405V4.133ZM1.333 4.133c0-.746 0-1.12.146-1.405.127-.25.331-.455.582-.583C2.347 2 2.72 2 3.467 2h.266c1.494 0 2.24 0 2.81.29.503.256.91.664 1.166 1.166C8 4.026 8 4.773 8 6.266V14l-.067-.1c-.463-.695-.694-1.042-1-1.293a2.665 2.665 0 0 0-.919-.492C5.635 12 5.218 12 4.384 12h-.917c-.747 0-1.12 0-1.406-.145a1.334 1.334 0 0 1-.582-.583c-.146-.285-.146-.659-.146-1.405V4.133Z"/></symbol><symbol id="star" viewBox="0 0 32 32"><path fill="#ffc531" d="M12.4 9.394 16 2.572l3.6 6.822a2.2 2.2 0 0 0 1.571 1.141l7.601 1.315-5.376 5.532a2.2 2.2 0 0 0-.6 1.846l1.098 7.635-6.922-3.404a2.199 2.199 0 0 0-1.941 0l-6.922 3.404 1.098-7.635a2.2 2.2 0 0 0-.6-1.846L3.231 11.85l7.601-1.315a2.202 2.202 0 0 0 1.571-1.141z" style="stroke:#ffc531;stroke-width:2.4"/></symbol></defs></svg>
